assets/Japanese open for business button/Flat/japanese_open_for_business_button_flat.svg

<svg width="32" height="32" viewBox="0 0 32 32" fill="none" xmlns="http://www.w3.org/2000/svg">
<path d="M2 6C2 3.79086 3.79086 2 6 2H26C28.2091 2 30 3.79086 30 6V26C30 28.2091 28.2091 30 26 30H6C3.79086 30 2 28.2091 2 26V6Z" fill="#FF822D"/>
<path d="M10.0531 6.08911C9.58732 6.38585 9.45027 7.00401 9.74702 7.4698L9.96233 7.80778C10.0153 7.89099 9.95557 7.99994 9.85691 7.99994H8C7.44772 7.99994 7 8.44766 7 8.99994V11.9999C7 12.5522 7.44772 12.9999 8 12.9999C8.55228 12.9999 9 12.5522 9 11.9999V10.1249C9 10.0559 9.05596 9.99994 9.125 9.99994H23.875C23.944 9.99994 24 10.0559 24 10.1249V11.9999C24 12.5522 24.4477 12.9999 25 12.9999C25.5523 12.9999 26 12.5522 26 11.9999V8.99994C26 8.44766 25.5523 7.99994 25 7.99994H23.181C23.0823 7.99994 23.0225 7.89099 23.0756 7.80778L23.2468 7.53903C23.5435 7.07323 23.4065 6.45508 22.9407 6.15834C22.4749 5.86159 21.8567 5.99863 21.56 6.46443L20.6186 7.9421C20.5957 7.97813 20.5559 7.99994 20.5132 7.99994H16.4818C16.4391 7.99994 16.3993 7.97813 16.3764 7.9421L15.44 6.47235C15.1433 6.00656 14.5251 5.86951 14.0593 6.16626C13.5935 6.463 13.4565 7.08115 13.7532 7.54695L13.9194 7.80778C13.9724 7.89099 13.9127 7.99994 13.814 7.99994H12.5247C12.482 7.99994 12.4422 7.97813 12.4193 7.9421L11.4338 6.3952C11.1371 5.92941 10.5189 5.79236 10.0531 6.08911Z" fill="white"/>
<path d="M10 12C10 11.4477 10.4477 11 11 11H22C22.5523 11 23 11.4477 23 12V16C23 16.5523 22.5523 17 22 17H15.0976C15.0402 17 14.9902 17.039 14.9763 17.0947L14.5388 18.8447C14.5191 18.9236 14.5788 19 14.6601 19H25C25.5523 19 26 19.4477 26 20V25C26 25.5523 25.5523 26 25 26C24.49 26 24.0691 25.6182 24.0077 25.1248C23.9992 25.0562 23.944 25 23.875 25H9.125C9.05596 25 9.00082 25.0562 8.99229 25.1248C8.93089 25.6182 8.51004 26 8 26C7.44772 26 7 25.5523 7 25V20C7 19.4477 7.44772 19 8 19H12.4024C12.4598 19 12.5098 18.961 12.5237 18.9053L12.9612 17.1553C12.9809 17.0764 12.9212 17 12.8399 17H11C10.4477 17 10 16.5523 10 16V12ZM12 13.125V14.875C12 14.944 12.056 15 12.125 15H20.875C20.944 15 21 14.944 21 14.875V13.125C21 13.056 20.944 13 20.875 13H12.125C12.056 13 12 13.056 12 13.125ZM24 21.125C24 21.056 23.944 21 23.875 21H9.125C9.05596 21 9 21.056 9 21.125V22.875C9 22.944 9.05596 23 9.125 23H23.875C23.944 23 24 22.944 24 22.875V21.125Z" fill="white"/>
</svg>

<svg xmlns="http://www.w3.org/2000/svg" width="32" height="32" fill="none"><path fill="#FF822D" d="M2 6a4 4 0 0 1 4-4h20a4 4 0 0 1 4 4v20a4 4 0 0 1-4 4H6a4 4 0 0 1-4-4V6Z"/><path fill="#fff" d="M10.053 6.09a1 1 0 0 0-.306 1.38l.215.338A.125.125 0 0 1 9.857 8H8a1 1 0 0 0-1 1v3a1 1 0 1 0 2 0v-1.875c0-.07.056-.125.125-.125h14.75c.069 0 .125.056.125.125V12a1 1 0 1 0 2 0V9a1 1 0 0 0-1-1h-1.819a.125.125 0 0 1-.105-.192l.17-.269a1 1 0 0 0-1.686-1.075l-.941 1.478a.125.125 0 0 1-.106.058h-4.031a.125.125 0 0 1-.106-.058l-.936-1.47a1 1 0 1 0-1.687 1.075l.166.26a.125.125 0 0 1-.105.193h-1.29a.125.125 0 0 1-.105-.058l-.985-1.547a1 1 0 0 0-1.38-.306Z"/><path fill="#fff" d="M10 12a1 1 0 0 1 1-1h11a1 1 0 0 1 1 1v4a1 1 0 0 1-1 1h-6.902a.125.125 0 0 0-.122.095l-.437 1.75c-.02.079.04.155.121.155H25a1 1 0 0 1 1 1v5a1 1 0 0 1-1.992.125c-.009-.069-.064-.125-.133-.125H9.125c-.069 0-.124.056-.133.125A1 1 0 0 1 7 25v-5a1 1 0 0 1 1-1h4.402a.125.125 0 0 0 .122-.095l.437-1.75A.125.125 0 0 0 12.84 17H11a1 1 0 0 1-1-1v-4Zm2 1.125v1.75c0 .069.056.125.125.125h8.75a.125.125 0 0 0 .125-.125v-1.75a.125.125 0 0 0-.125-.125h-8.75a.125.125 0 0 0-.125.125Zm12 8a.125.125 0 0 0-.125-.125H9.125a.125.125 0 0 0-.125.125v1.75c0 .069.056.125.125.125h14.75a.125.125 0 0 0 .125-.125v-1.75Z"/></svg>
